X:15134
T:Se(illegible)Cade.JB.18
M:4/4
L:1/8
Q:120
S:James Biggins MS, Leeds, 1779.
R:Reel
O:England
A:Yorkshire
Z:
Z:vmp.Nick Barber & Chris Partingto
K:G
G/A/B/c/ dB gBdB|gBdBaAAB|G/A/B/c/ dB gBdB|cA d/e/d/c/ BGG2:|!
|:g>age a>baf|g>fga beef|g>age a>gfd|gd ed/c/ BGG2:|]
W:Nick..Is this the tune you mean, and what's the other titleChris.
